ui/src/assets/images/resources/sts.svg

<?xml version="1.0" encoding="UTF-8" standalone="no"?>
<!-- Created with Inkscape (http://www.inkscape.org/) -->

<svg
   xmlns:dc="http://purl.org/dc/elements/1.1/"
   xmlns:cc="http://creativecommons.org/ns#"
   xmlns:rdf="http://www.w3.org/1999/02/22-rdf-syntax-ns#"
   xmlns:svg="http://www.w3.org/2000/svg"
   xmlns="http://www.w3.org/2000/svg"
   xmlns:sodipodi="http://sodipodi.sourceforge.net/DTD/sodipodi-0.dtd"
   xmlns:inkscape="http://www.inkscape.org/namespaces/inkscape"
   width="18.035334mm"
   height="17.500378mm"
   viewBox="0 0 18.035334 17.500378"
   version="1.1"
   id="svg13826"
   inkscape:version="0.91 r13725"
   sodipodi:docname="sts.svg">
  <defs
     id="defs13820" />
  <sodipodi:namedview
     id="base"
     pagecolor="#8FA4B1"
     bordercolor="#666666"
     borderopacity="1.0"
     inkscape:pageopacity="0.0"
     inkscape:pageshadow="2"
     inkscape:zoom="8"
     inkscape:cx="-2.090004"
     inkscape:cy="28.752239"
     inkscape:document-units="mm"
     inkscape:current-layer="layer1"
     showgrid="false"
     inkscape:window-width="1440"
     inkscape:window-height="775"
     inkscape:window-x="0"
     inkscape:window-y="1"
     inkscape:window-maximized="1"
     fit-margin-top="0"
     fit-margin-left="0"
     fit-margin-right="0"
     fit-margin-bottom="0" />
  <metadata
     id="metadata13823">
    <rdf:RDF>
      <cc:Work
         rdf:about="">
        <dc:format>image/svg+xml</dc:format>
        <dc:type
           rdf:resource="http://purl.org/dc/dcmitype/StillImage" />
        <dc:title />
      </cc:Work>
    </rdf:RDF>
  </metadata>
  <g
     inkscape:label="Calque 1"
     inkscape:groupmode="layer"
     id="layer1"
     transform="translate(-0.99262638,-1.174181)">
    <g
       id="g4221"
       transform="translate(0.26877762,1.0923105)">
      <path
         style="fill:none;fill-rule:evenodd;stroke:#8FA4B1;stroke-width:0.52914584;stroke-linecap:square;stroke-linejoin:round;stroke-miterlimit:10;stroke-dasharray:1.58743761, 1.58743761;stroke-dashoffset:3.66698074;stroke-opacity:1"
         inkscape:connector-curvature="0"
         d="m 8.0530333,5.1290756 6.5250067,0 0,4.583335 -6.5250067,0 z"
         id="path1234" />
      <g
         id="g4213">
        <path
           id="path1238"
           d="m 6.5142849,6.5403876 6.5250071,0 0,4.5833354 -6.5250071,0 z"
           inkscape:connector-curvature="0"
           style="fill:white;fill-opacity:1;fill-rule:evenodd;stroke:#8FA4B1;stroke-width:0.52914584;stroke-linecap:square;stroke-linejoin:round;stroke-miterlimit:10;stroke-dasharray:1.58743761, 1.58743761;stroke-dashoffset:3.87863898;stroke-opacity:1" />
        <path
           id="path1240"
           d="m 4.9755578,7.9516984 6.5249912,0 0,4.5833346 -6.5249912,0 z"
           inkscape:connector-curvature="0"
           style="fill:#8FA4B1;fill-rule:evenodd;stroke:none;stroke-width:0.26458332;stroke-linecap:square;stroke-miterlimit:10" />
        <path
           id="path1242"
           d="m 4.9755578,7.9516984 6.5249912,0 0,4.5833346 -6.5249912,0 z"
           inkscape:connector-curvature="0"
           style="fill:none;fill-rule:evenodd;stroke:#8FA4B1;stroke-width:0.5291667;stroke-linecap:butt;stroke-linejoin:round;stroke-miterlimit:10;stroke-opacity:1" />
        <path
           id="path1246"
           d="m 5.5087198,9.2260482 0,0 c 0,-0.4294054 1.2218881,-0.7775054 2.7291615,-0.7775054 1.5072743,0 2.7291787,0.3481 2.7291787,0.7775054 l 0,0 c 0,0.4294054 -1.2219044,0.7775068 -2.7291787,0.7775068 -1.5072734,0 -2.7291615,-0.3481014 -2.7291615,-0.7775068 z"
           inkscape:connector-curvature="0"
           style="fill:#8FA4B1;fill-opacity:1;fill-rule:evenodd;stroke:none;stroke-width:0.26458332;stroke-linecap:square;stroke-miterlimit:10" />
        <path
           id="path1248"
           d="m 10.967067,9.2260482 0,0 c 0,0.4294054 -1.2219064,0.7775068 -2.7291777,0.7775068 -1.5072734,0 -2.7291614,-0.3481014 -2.7291614,-0.7775068 l 0,0 c 0,-0.4294054 1.221888,-0.7775054 2.7291614,-0.7775054 1.5072733,0 2.7291777,0.3481 2.7291777,0.7775054 l 0,2.1033228 c 0,0.429405 -1.2219064,0.777506 -2.7291777,0.777506 -1.5072734,0 -2.7291614,-0.348101 -2.7291614,-0.777506 l 0,-2.1033228"
           inkscape:connector-curvature="0"
           style="fill:#000000;fill-opacity:0;fill-rule:evenodd;stroke:none;stroke-width:0.26458332;stroke-linecap:square;stroke-miterlimit:10" />
        <path
           id="path1250"
           d="m 10.967067,9.2260482 0,0 c 0,0.4294054 -1.2219064,0.7775068 -2.7291777,0.7775068 -1.5072734,0 -2.7291614,-0.3481014 -2.7291614,-0.7775068 l 0,0 c 0,-0.4294054 1.221888,-0.7775054 2.7291614,-0.7775054 1.5072733,0 2.7291777,0.3481 2.7291777,0.7775054 l 0,2.1033228 c 0,0.429405 -1.2219064,0.777506 -2.7291777,0.777506 -1.5072734,0 -2.7291614,-0.348101 -2.7291614,-0.777506 l 0,-2.1033228"
           inkscape:connector-curvature="0"
           style="fill:none;fill-rule:evenodd;stroke:white;stroke-width:0.5291667;stroke-linecap:butt;stroke-linejoin:round;stroke-miterlimit:10;stroke-opacity:1" />
      </g>
    </g>
  </g>
</svg>

<?xml version="1.0" encoding="UTF-8" standalone="no"?>
<!-- Created with Inkscape (http://www.inkscape.org/) -->

<svg
   xmlns:dc="http://purl.org/dc/elements/1.1/"
   xmlns:cc="http://creativecommons.org/ns#"
   xmlns:rdf="http://www.w3.org/1999/02/22-rdf-syntax-ns#"
   xmlns:svg="http://www.w3.org/2000/svg"
   xmlns="http://www.w3.org/2000/svg"
   xmlns:sodipodi="http://sodipodi.sourceforge.net/DTD/sodipodi-0.dtd"
   xmlns:inkscape="http://www.inkscape.org/namespaces/inkscape"
   width="10.131639mm"
   height="7.9351134mm"
   viewBox="0 0 10.131639 7.9351136"
   version="1.1"
   id="svg13826"
   inkscape:version="0.92.2 5c3e80d, 2017-08-06"
   sodipodi:docname="sts.svg">
  <defs
     id="defs13820" />
  <sodipodi:namedview
     id="base"
     pagecolor="#8FA4B1"
     bordercolor="#666666"
     borderopacity="1.0"
     inkscape:pageopacity="0.0"
     inkscape:pageshadow="2"
     inkscape:zoom="8"
     inkscape:cx="-17.159455"
     inkscape:cy="10.67615"
     inkscape:document-units="mm"
     inkscape:current-layer="layer1"
     showgrid="false"
     inkscape:window-width="1680"
     inkscape:window-height="912"
     inkscape:window-x="0"
     inkscape:window-y="1"
     inkscape:window-maximized="1"
     fit-margin-top="0"
     fit-margin-left="0"
     fit-margin-right="0"
     fit-margin-bottom="0" />
  <metadata
     id="metadata13823">
    <rdf:RDF>
      <cc:Work
         rdf:about="">
        <dc:format>image/svg+xml</dc:format>
        <dc:type
           rdf:resource="http://purl.org/dc/dcmitype/StillImage" />
        <dc:title />
      </cc:Work>
    </rdf:RDF>
  </metadata>
  <g
     inkscape:label="Calque 1"
     inkscape:groupmode="layer"
     id="layer1"
     transform="translate(-4.9797521,-5.9568132)">
    <g
       id="g4221"
       transform="translate(0.26877762,1.0923105)">
      <path
         style="fill:none;fill-rule:evenodd;stroke:#8fa4b1;stroke-width:0.52914584;stroke-linecap:square;stroke-linejoin:round;stroke-miterlimit:10;stroke-dasharray:1.58743761, 1.58743761;stroke-dashoffset:3.66698074;stroke-opacity:1"
         inkscape:connector-curvature="0"
         d="M 8.0530333,5.1290756 H 14.57804 v 4.583335 H 8.0530333 Z"
         id="path1234" />
      <g
         id="g4213">
        <path
           id="path1238"
           d="M 6.5142849,6.5403876 H 13.039292 V 11.123723 H 6.5142849 Z"
           inkscape:connector-curvature="0"
           style="fill:#ffffff;fill-opacity:1;fill-rule:evenodd;stroke:#8fa4b1;stroke-width:0.52914584;stroke-linecap:square;stroke-linejoin:round;stroke-miterlimit:10;stroke-dasharray:1.58743761, 1.58743761;stroke-dashoffset:3.87863898;stroke-opacity:1" />
        <path
           id="path1240"
           d="M 4.9755578,7.9516984 H 11.500549 V 12.535033 H 4.9755578 Z"
           inkscape:connector-curvature="0"
           style="fill:#8fa4b1;fill-rule:evenodd;stroke:none;stroke-width:0.26458332;stroke-linecap:square;stroke-miterlimit:10" />
        <path
           id="path1242"
           d="M 4.9755578,7.9516984 H 11.500549 V 12.535033 H 4.9755578 Z"
           inkscape:connector-curvature="0"
           style="fill:none;fill-rule:evenodd;stroke:#8fa4b1;stroke-width:0.5291667;stroke-linecap:butt;stroke-linejoin:round;stroke-miterlimit:10;stroke-opacity:1" />
        <path
           id="path1246"
           d="m 5.5087198,9.2260482 v 0 c 0,-0.4294054 1.2218881,-0.7775054 2.7291615,-0.7775054 1.5072743,0 2.7291787,0.3481 2.7291787,0.7775054 v 0 c 0,0.4294054 -1.2219044,0.7775068 -2.7291787,0.7775068 -1.5072734,0 -2.7291615,-0.3481014 -2.7291615,-0.7775068 z"
           inkscape:connector-curvature="0"
           style="fill:#8fa4b1;fill-opacity:1;fill-rule:evenodd;stroke:none;stroke-width:0.26458332;stroke-linecap:square;stroke-miterlimit:10" />
        <path
           id="path1248"
           d="m 10.967067,9.2260482 v 0 c 0,0.4294054 -1.2219064,0.7775068 -2.7291777,0.7775068 -1.5072734,0 -2.7291614,-0.3481014 -2.7291614,-0.7775068 v 0 c 0,-0.4294054 1.221888,-0.7775054 2.7291614,-0.7775054 1.5072733,0 2.7291777,0.3481 2.7291777,0.7775054 v 2.1033228 c 0,0.429405 -1.2219064,0.777506 -2.7291777,0.777506 -1.5072734,0 -2.7291614,-0.348101 -2.7291614,-0.777506 V 9.2260482"
           inkscape:connector-curvature="0"
           style="fill:#000000;fill-opacity:0;fill-rule:evenodd;stroke:none;stroke-width:0.26458332;stroke-linecap:square;stroke-miterlimit:10" />
        <path
           id="path1250"
           d="m 10.967067,9.2260482 v 0 c 0,0.4294054 -1.2219064,0.7775068 -2.7291777,0.7775068 -1.5072734,0 -2.7291614,-0.3481014 -2.7291614,-0.7775068 v 0 c 0,-0.4294054 1.221888,-0.7775054 2.7291614,-0.7775054 1.5072733,0 2.7291777,0.3481 2.7291777,0.7775054 v 2.1033228 c 0,0.429405 -1.2219064,0.777506 -2.7291777,0.777506 -1.5072734,0 -2.7291614,-0.348101 -2.7291614,-0.777506 V 9.2260482"
           inkscape:connector-curvature="0"
           style="fill:none;fill-rule:evenodd;stroke:#ffffff;stroke-width:0.5291667;stroke-linecap:butt;stroke-linejoin:round;stroke-miterlimit:10;stroke-opacity:1" />
      </g>
    </g>
  </g>
</svg>
